src/16/panel/mstdn-panel.svg

<svg xmlns="http://www.w3.org/2000/svg" width="16" height="16" version="1.1">
 <defs>
  <style id="current-color-scheme" type="text/css">
   .ColorScheme-Text { color:#dfdfdf; } .ColorScheme-Highlight { color:#4285f4; }
  </style>
 </defs>
 <path style="fill:currentColor" class="ColorScheme-Text" d="M 6 1 C 3.7840286 1 2 2.8383344 2 5.1230469 L 2 7.3769531 C 2 7.3804531 2.0019531 7.3821456 2.0019531 7.3847656 C 2.0040131 8.8923906 2.1427263 12.25272 3.3066406 13.605469 C 4.355358 14.825222 6.7989094 15 7.7871094 15 C 8.7959369 15 9.5286465 14.7735 10 14.576172 L 10 12.773438 C 9.5135888 12.907584 8.8255391 13.063526 8.0175781 13.048828 C 7.117321 13.023453 5.3063955 12.364609 5.1132812 11.349609 C 5.0876527 11.224484 5.0769366 11.078984 5.0585938 10.943359 C 5.2373938 10.967859 5.4140379 11 5.5996094 11 L 10 11 C 12.215714 11 14 9.6615781 14 7.3769531 L 14 5.1230469 C 14 2.8383344 12.215714 1 10 1 L 6 1 z M 6 4 A 0.99999995 1 0 0 1 7 5 A 0.99999995 1 0 0 1 6 6 A 0.99999995 1 0 0 1 5 5 A 0.99999995 1 0 0 1 6 4 z"/>
</svg>

<svg xmlns="http://www.w3.org/2000/svg" width="16" height="16"><defs><style id="current-color-scheme" type="text/css">.ColorScheme-Text{color:#dfdfdf;}.ColorScheme-Highlight{color:#5294e2;}</style></defs><defs><style id="current-color-scheme" type="text/css"></style></defs><path d="M6 1C3.784 1 2 2.838 2 5.123v2.254l.002.008c.002 1.507.14 4.868 1.305 6.22C4.355 14.825 6.799 15 7.787 15c1.009 0 1.742-.226 2.213-.424v-1.803a6.916 6.916 0 0 1-1.982.276c-.9-.026-2.712-.684-2.905-1.7-.025-.125-.036-.27-.054-.406.178.025.355.057.54.057H10c2.216 0 4-1.338 4-3.623V5.123C14 2.838 12.216 1 10 1H6zm0 3a1 1 0 0 1 1 1 1 1 0 0 1-1 1 1 1 0 0 1-1-1 1 1 0 0 1 1-1z" fill="currentColor" class="ColorScheme-Text"/></svg>
